X:128
T:When The Cock Crows It Is Day
R:slide
H:See also #13
Z:id:hn-slide-128
M:6/8
L:1/8
K:G
GAB AGE | c2E c2D | GAB AGE | A2D A2D |
GAB AGE | c2d ege | dBG AGE |1 G3 G2D :|2 G3 GBd ||
|: g2e dBG | c3 c2d | e/f/ge dBG | A3 ABd |
g2e dBG | c2d e/f/ge | dBG AGE |1 G3 GBd :|2 G3 G2D ||

